Dominus_Funeral/22/apps/qtlinguist.svg

<svg xmlns="http://www.w3.org/2000/svg" width="24" height="24"><defs><linearGradient id="a"><stop offset="0"/><stop offset="1" stop-opacity="0"/></linearGradient></defs><path style="line-height:1.25;-inkscape-font-specification:'iron maiden'" d="M13.23 1.4v2.77h2.9V14.6l2.91-2.24v-8.2h2.12l1.95-2.71-9.88-.07zm-10.66.7L.9 4.8l6.15 7.7 1.48-1.95 1.5 1.88 1.79-2.38-1.5-1.89L12.8 4.8 11.01 2.1H2.57zm1.3 2.49h5.85L6.94 8.65 3.87 4.6zm-.49 9.2a.88.88 0 0 0-.88.89v4.84c0 .48.4.88.88.88h3.08l3.52 2.64-.44-2.64h3.08c.49 0 .88-.4.88-.88v-4.84c0-.5-.39-.88-.88-.88H3.38z" font-weight="400" font-size="40" font-family="iron maiden" letter-spacing="0" word-spacing="0" fill="#1a1a1a"/></svg>

<?xml version="1.0" encoding="UTF-8" standalone="no"?>
<svg
   xmlns:dc="http://purl.org/dc/elements/1.1/"
   xmlns:cc="http://creativecommons.org/ns#"
   xmlns:rdf="http://www.w3.org/1999/02/22-rdf-syntax-ns#"
   xmlns:svg="http://www.w3.org/2000/svg"
   xmlns="http://www.w3.org/2000/svg"
   xmlns:sodipodi="http://sodipodi.sourceforge.net/DTD/sodipodi-0.dtd"
   xmlns:inkscape="http://www.inkscape.org/namespaces/inkscape"
   width="24"
   height="24"
   version="1.1"
   id="svg11"
   sodipodi:docname="qtlinguist.svg"
   inkscape:version="0.92.4 (5da689c313, 2019-01-14)">
  <metadata
     id="metadata15">
    <rdf:RDF>
      <cc:Work
         rdf:about="">
        <dc:format>image/svg+xml</dc:format>
        <dc:type
           rdf:resource="http://purl.org/dc/dcmitype/StillImage" />
        <dc:title></dc:title>
      </cc:Work>
    </rdf:RDF>
  </metadata>
  <sodipodi:namedview
     pagecolor="#ffffff"
     bordercolor="#666666"
     borderopacity="1"
     objecttolerance="10"
     gridtolerance="10"
     guidetolerance="10"
     inkscape:pageopacity="0"
     inkscape:pageshadow="2"
     inkscape:window-width="1138"
     inkscape:window-height="480"
     id="namedview13"
     showgrid="false"
     inkscape:zoom="9.8333333"
     inkscape:cx="1.0677966"
     inkscape:cy="12"
     inkscape:window-x="0"
     inkscape:window-y="25"
     inkscape:window-maximized="0"
     inkscape:current-layer="svg11" />
  <defs
     id="defs7">
    <linearGradient
       id="a">
      <stop
         offset="0"
         id="stop2" />
      <stop
         offset="1"
         stop-opacity="0"
         id="stop4" />
    </linearGradient>
  </defs>
  <path
     style="font-weight:400;font-size:40px;line-height:1.25;font-family:'iron maiden';-inkscape-font-specification:'iron maiden';letter-spacing:0;word-spacing:0;fill:#1a1a1a"
     d="m 13.23,1.4 v 2.77 h 2.9 V 14.6 l 2.91,-2.24 v -8.2 h 2.12 L 23.11,1.45 13.23,1.38 Z M 2.57,2.1 0.9,4.8 l 6.15,7.7 1.48,-1.95 1.5,1.88 1.79,-2.38 L 10.32,8.16 12.8,4.8 11.01,2.1 Z m 1.3,2.49 H 9.72 L 6.94,8.65 3.87,4.6 Z m -0.49,9.2 A 0.88,0.88 0 0 0 2.5,14.68 v 4.84 C 2.5,20 2.9,20.4 3.38,20.4 H 6.46 L 9.98,23.04 9.54,20.4 h 3.08 c 0.49,0 0.88,-0.4 0.88,-0.88 v -4.84 c 0,-0.5 -0.39,-0.88 -0.88,-0.88 H 3.38 Z"
     font-weight="400"
     font-size="40"
     letter-spacing="0"
     word-spacing="0"
     id="path9"
     inkscape:connector-curvature="0" />
</svg>
